app/assets/images/trash.svg

<svg width="25" height="29" viewBox="0 0 25 29" fill="none" xmlns="http://www.w3.org/2000/svg">
<path d="M7.69201 10.5769C7.94702 10.5769 8.19159 10.6782 8.37192 10.8585C8.55224 11.0389 8.65355 11.2834 8.65355 11.5384V23.0769C8.65355 23.3319 8.55224 23.5765 8.37192 23.7568C8.19159 23.9371 7.94702 24.0384 7.69201 24.0384C7.43699 24.0384 7.19242 23.9371 7.0121 23.7568C6.83177 23.5765 6.73047 23.3319 6.73047 23.0769V11.5384C6.73047 11.2834 6.83177 11.0389 7.0121 10.8585C7.19242 10.6782 7.43699 10.5769 7.69201 10.5769ZM12.4997 10.5769C12.7547 10.5769 12.9993 10.6782 13.1796 10.8585C13.3599 11.0389 13.4612 11.2834 13.4612 11.5384V23.0769C13.4612 23.3319 13.3599 23.5765 13.1796 23.7568C12.9993 23.9371 12.7547 24.0384 12.4997 24.0384C12.2447 24.0384 12.0001 23.9371 11.8198 23.7568C11.6395 23.5765 11.5382 23.3319 11.5382 23.0769V11.5384C11.5382 11.2834 11.6395 11.0389 11.8198 10.8585C12.0001 10.6782 12.2447 10.5769 12.4997 10.5769ZM18.2689 11.5384C18.2689 11.2834 18.1676 11.0389 17.9873 10.8585C17.807 10.6782 17.5624 10.5769 17.3074 10.5769C17.0524 10.5769 16.8078 10.6782 16.6275 10.8585C16.4472 11.0389 16.3459 11.2834 16.3459 11.5384V23.0769C16.3459 23.3319 16.4472 23.5765 16.6275 23.7568C16.8078 23.9371 17.0524 24.0384 17.3074 24.0384C17.5624 24.0384 17.807 23.9371 17.9873 23.7568C18.1676 23.5765 18.2689 23.3319 18.2689 23.0769V11.5384Z" fill="#7485A9"/>
<path fill-rule="evenodd" clip-rule="evenodd" d="M25 5.76923C25 6.27926 24.7974 6.7684 24.4367 7.12905C24.0761 7.4897 23.587 7.69231 23.0769 7.69231H22.1154V25C22.1154 26.0201 21.7102 26.9983 20.9889 27.7196C20.2676 28.4409 19.2893 28.8462 18.2692 28.8462H6.73077C5.71071 28.8462 4.73242 28.4409 4.01113 27.7196C3.28983 26.9983 2.88462 26.0201 2.88462 25V7.69231H1.92308C1.41305 7.69231 0.923903 7.4897 0.563256 7.12905C0.202609 6.7684 0 6.27926 0 5.76923V3.84615C0 3.33612 0.202609 2.84698 0.563256 2.48633C0.923903 2.12569 1.41305 1.92308 1.92308 1.92308H8.65385C8.65385 1.41305 8.85646 0.923903 9.2171 0.563256C9.57775 0.202609 10.0669 0 10.5769 0L14.4231 0C14.9331 0 15.4222 0.202609 15.7829 0.563256C16.1435 0.923903 16.3462 1.41305 16.3462 1.92308H23.0769C23.587 1.92308 24.0761 2.12569 24.4367 2.48633C24.7974 2.84698 25 3.33612 25 3.84615V5.76923ZM5.03462 7.69231L4.80769 7.80577V25C4.80769 25.51 5.0103 25.9992 5.37095 26.3598C5.7316 26.7205 6.22074 26.9231 6.73077 26.9231H18.2692C18.7793 26.9231 19.2684 26.7205 19.6291 26.3598C19.9897 25.9992 20.1923 25.51 20.1923 25V7.80577L19.9654 7.69231H5.03462ZM1.92308 5.76923V3.84615H23.0769V5.76923H1.92308Z" fill="#7485A9"/>
</svg>

<svg width="25" height="29" fill="none" xmlns="http://www.w3.org/2000/svg"><path d="M7.692 10.577a.962.962 0 01.962.961v11.539a.962.962 0 01-1.924 0V11.538a.962.962 0 01.962-.961zm4.808 0a.962.962 0 01.961.961v11.539a.962.962 0 11-1.923 0V11.538a.962.962 0 01.962-.961zm5.769.961a.962.962 0 00-1.923 0v11.539a.962.962 0 101.923 0V11.538z" fill="#7485A9"/><path fill-rule="evenodd" clip-rule="evenodd" d="M25 5.77a1.923 1.923 0 01-1.923 1.922h-.962V25a3.846 3.846 0 01-3.846 3.846H6.731A3.846 3.846 0 012.885 25V7.692h-.962A1.923 1.923 0 010 5.77V3.846a1.923 1.923 0 011.923-1.923h6.73A1.923 1.923 0 0110.578 0h3.846a1.923 1.923 0 011.923 1.923h6.73A1.923 1.923 0 0125 3.846V5.77zM5.035 7.691l-.227.114V25a1.923 1.923 0 001.923 1.923h11.538A1.923 1.923 0 0020.192 25V7.806l-.227-.114H5.035zM1.923 5.77V3.846h21.154V5.77H1.923z" fill="#7485A9"/></svg>
